svgs/personal_safety.svg

<?xml version="1.0" encoding="UTF-8" standalone="no"?>
<svg
   width="24"
   height="24"
   viewBox="0 0 24 24"
   fill="none"
   version="1.1"
   id="svg4"
   sodipodi:docname="personal_safety.svg"
   inkscape:version="1.1.1 (3bf5ae0d25, 2021-09-20)"
   xmlns:inkscape="http://www.inkscape.org/namespaces/inkscape"
   xmlns:sodipodi="http://sodipodi.sourceforge.net/DTD/sodipodi-0.dtd"
   xmlns="http://www.w3.org/2000/svg"
   xmlns:svg="http://www.w3.org/2000/svg">
  <defs
     id="defs8" />
  <sodipodi:namedview
     id="namedview6"
     pagecolor="#ffffff"
     bordercolor="#666666"
     borderopacity="1.0"
     inkscape:pageshadow="2"
     inkscape:pageopacity="0.0"
     inkscape:pagecheckerboard="0"
     showgrid="false"
     inkscape:zoom="12.271249"
     inkscape:cx="-6.3970667"
     inkscape:cy="18.25405"
     inkscape:window-width="2560"
     inkscape:window-height="1011"
     inkscape:window-x="0"
     inkscape:window-y="32"
     inkscape:window-maximized="1"
     inkscape:current-layer="svg4" />
  <path
     fill-rule="evenodd"
     clip-rule="evenodd"
     d="M 14.778545,7.19958 V 4.77108 C 14.778545,3.24066 13.537845,2 12.007445,2 10.476945,2 9.2363344,3.24066 9.2363344,4.77109 v 2.42947 l -2.10414,-1.21483 c -0.43859,-0.25322 -0.91763,-0.37292 -1.39005,-0.37171 -0.96017,-0.00245 -1.89496,0.49482 -2.40948,1.386 -0.76522,1.32539 -0.3111,3.02018 1.01429,3.78538 l 2.10384,1.2146 -2.10376,1.2146 c -1.32539,0.7653 -1.7795,2.46 -1.01429,3.7854 0.76522,1.3254 2.45999,1.7795 3.78538,1.0143 l 2.11821,-1.2229 v 2.4375 c 0,1.5304 1.2406106,2.7711 2.7711106,2.7711 1.5304,0 2.7711,-1.2407 2.7711,-2.7711 v -2.429 l 2.1034,1.2144 c 1.3254,0.7652 3.0202,0.3111 3.7854,-1.0143 0.7652,-1.3254 0.3111,-3.0201 -1.0143,-3.7854 l -2.1043,-1.2149 2.1033,-1.2143 c 1.3254,-0.7652 1.7795,-2.45999 1.0143,-3.78538 -0.7652,-1.32539 -2.46,-1.7795 -3.7854,-1.01429 z m -3.5422,8.43712 v 3.5922 c 0,0.4259 0.3452,0.7711 0.7711,0.7711 0.4258,0 0.7711,-0.3452 0.7711,-0.7711 l -2e-4,-4.4825 z m 1.542,-6.38298 2e-4,-4.48264 C 12.778545,4.34523 12.433245,4 12.007445,4 c -0.4259,0 -0.7711,0.34523 -0.7711,0.77109 v 3.59234 z m 2.7704,1.59128 -1.5422,-0.89034 3.8744,-2.23688 c 0.3688,-0.21293 0.8404,-0.08656 1.0533,0.28224 0.213,0.3688 0.0866,0.84039 -0.2822,1.05332 z m -1.5422,3.1998 1.5422,-0.8904 3.1043,1.7923 c 0.3688,0.2129 0.4952,0.6845 0.2822,1.0533 -0.2129,0.3688 -0.6845,0.4952 -1.0533,0.2823 z M 10.450745,12 5.3469544,9.05334 c -0.36881,-0.21293 -0.49517,-0.68452 -0.28224,-1.05332 0.21293,-0.36881 0.68452,-0.49517 1.05332,-0.28224 L 13.535145,12 6.1181244,16.2823 c -0.36881,0.2129 -0.8404,0.0865 -1.05332,-0.2823 -0.21293,-0.3688 -0.08657,-0.8404 0.28223,-1.0533 z"
     fill="#000000"
     id="path2" />
  <path
     style="fill:#000000;stroke:none;stroke-width:1px;stroke-linecap:butt;stroke-linejoin:miter;stroke-opacity:1;fill-opacity:1"
     d="M 4.6751428,7.511749 7.2679975,6.9238331 15.428087,11.898458 6.3850375,17.385706 4.4555655,16.690991 3.903159,14.831381 8.3181803,11.880159 5.0545369,10.145676 4.104271,8.8077013 Z"
     id="path967" />
</svg>

<svg xmlns="http://www.w3.org/2000/svg" width="24" height="24" fill="none" viewBox="0 0 24 24"><path fill="#000" fill-rule="evenodd" d="M14.779 7.2V4.77a2.771 2.771 0 0 0-5.543 0V7.2L7.132 5.986a2.758 2.758 0 0 0-1.39-.372 2.77 2.77 0 0 0-1.395 5.171L6.451 12l-2.104 1.215a2.771 2.771 0 0 0 2.771 4.8l2.118-1.224v2.438a2.771 2.771 0 1 0 5.543 0v-2.43l2.103 1.215a2.771 2.771 0 0 0 2.771-4.8L17.549 12l2.103-1.215a2.771 2.771 0 1 0-2.771-4.8zm-3.543 8.437v3.592a.771.771 0 1 0 1.543 0v-4.483zm1.542-6.383V4.77a.771.771 0 0 0-1.542 0v3.592zm2.77 1.591-1.541-.89 3.874-2.237a.771.771 0 1 1 .771 1.335zm-1.541 3.2 1.542-.89 3.104 1.792a.771.771 0 1 1-.771 1.335zM10.45 12 5.347 9.053a.771.771 0 1 1 .771-1.335L13.535 12l-7.417 4.282a.771.771 0 0 1-.771-1.335z" clip-rule="evenodd"/><path d="m4.675 7.512 2.593-.588 8.16 4.974-9.043 5.488-1.93-.695-.552-1.86 4.415-2.95-3.263-1.735-.95-1.338Z" style="fill:#000;stroke:none;stroke-width:1px;stroke-linecap:butt;stroke-linejoin:miter;stroke-opacity:1;fill-opacity:1"/></svg>
